X:101
T:Killavil Fancy, The
T:Eilish Brogan
T:Ten Pound Float, The
R:reel
D:Music at Matt Molloy's
D:Frankie Gavin & Alec Finn
Z:Sometimes played doubled.
Z:id:hn-reel-101
M:C|
K:G
~B3G A2BA|GE~E2 cEGE|DGBG A2BA|GEED EFGA|
~B3d A2BA|GE~E2 cEGE|DGBG A2BA|GEED ~E3D||
GABd edge|dB~B2 dBAB|GABd edge|dBAG EDB,D|
GABd edge|dB~B2 dega|(3bag ag egde|gedB AGEG||
P:Variations:
DGBG A2BA|GE~E2 cEGE|DGBG ~A3B|GEFD EGGA|
~B3d ~A3F|GE~E2 cEGE|DGBG ~A3B|GEED EGGD||
G2Bd efge|dBAB dBAB|G2Bd efge|dBAG EGGD|
G2Bd efge|dB~B2 dega|(3bag ag egde|gedB AGED||

